X:4956
T:Paddy on the Railroad
O:england
M:4/4
L:1/8
Q:1/4=200
C:Trad
K:D
d3 A BAFA|ABdA BAFA|ABde f2 ed|Beed egfe|
d3 A BAFA|ABdA BAFA|ABde fdec|dBAF D3 z:|
a2 ag f2 fe|d3 A BAFA|ABde f2 ed|Beed egfe|
abag fgfe|d3 A BAFA|ABde fdec|dBAF D3 z:|


